src/icons/svg/calendar.svg

<svg width="20" height="20" fill="none" xmlns="http://www.w3.org/2000/svg"><path d="M6.75 3.463c-.251.115-.35.307-.35.681v.246l-.442.021a3.996 3.996 0 0 0-.629.071c-.884.241-1.596.956-1.854 1.865-.054.188-.058.501-.058 4.153 0 3.652.004 3.965.058 4.153.26.915.957 1.612 1.872 1.872.188.054.526.058 4.636.058 3.706 0 4.464-.007 4.617-.047a2.683 2.683 0 0 0 1.936-1.936c.07-.273.07-7.927 0-8.2-.237-.926-.962-1.672-1.865-1.918a3.996 3.996 0 0 0-.629-.071L13.6 4.39v-.255c0-.197-.017-.287-.075-.403a.584.584 0 0 0-1.05 0c-.059.116-.075.205-.075.408v.26H7.6l-.001-.258c-.001-.387-.104-.578-.374-.691a.557.557 0 0 0-.475.012M6.4 5.86c0 .203.016.292.075.408a.584.584 0 0 0 1.05 0c.059-.116.075-.205.075-.408V5.6h4.8v.26c0 .203.016.292.075.408a.584.584 0 0 0 1.05 0c.059-.117.075-.205.075-.413v-.264l.358.017c.544.025.867.178 1.155.549.245.314.267.422.28 1.385l.012.858H4.6v-.794c0-1.031.05-1.221.417-1.589.3-.299.594-.411 1.091-.415L6.4 5.6v.26m8.993 6.098-.01 2.359-.075.187a1.494 1.494 0 0 1-.804.804l-.187.075H5.683l-.187-.075a1.69 1.69 0 0 1-.339-.195 1.526 1.526 0 0 1-.465-.609l-.075-.187-.01-2.359L4.598 9.6h10.804l-.009 2.358" fill-rule="evenodd" fill="#000"/></svg>

<svg width="20" height="20" viewBox="0 0 20 20" fill="none" xmlns="http://www.w3.org/2000/svg"><path d="M6.750 3.463 C 6.499 3.578,6.400 3.770,6.400 4.144 L 6.400 4.390 5.958 4.411 C 5.715 4.422,5.432 4.454,5.329 4.482 C 4.445 4.723,3.733 5.438,3.475 6.347 C 3.421 6.535,3.417 6.848,3.417 10.500 C 3.417 14.152,3.421 14.465,3.475 14.653 C 3.735 15.568,4.432 16.265,5.347 16.525 C 5.535 16.579,5.873 16.583,9.983 16.583 C 13.689 16.583,14.447 16.576,14.600 16.536 C 15.552 16.292,16.292 15.552,16.536 14.600 C 16.606 14.327,16.606 6.673,16.536 6.400 C 16.299 5.474,15.574 4.728,14.671 4.482 C 14.568 4.454,14.285 4.422,14.042 4.411 L 13.600 4.390 13.600 4.135 C 13.600 3.938,13.583 3.848,13.525 3.732 C 13.304 3.295,12.696 3.295,12.475 3.732 C 12.416 3.848,12.400 3.937,12.400 4.140 L 12.400 4.400 10.000 4.400 L 7.600 4.400 7.599 4.142 C 7.598 3.755,7.495 3.564,7.225 3.451 C 7.064 3.384,6.914 3.388,6.750 3.463 M6.400 5.860 C 6.400 6.063,6.416 6.152,6.475 6.268 C 6.696 6.705,7.304 6.705,7.525 6.268 C 7.584 6.152,7.600 6.063,7.600 5.860 L 7.600 5.600 10.000 5.600 L 12.400 5.600 12.400 5.860 C 12.400 6.063,12.416 6.152,12.475 6.268 C 12.696 6.705,13.304 6.705,13.525 6.268 C 13.584 6.151,13.600 6.063,13.600 5.855 L 13.600 5.591 13.958 5.608 C 14.502 5.633,14.825 5.786,15.113 6.157 C 15.358 6.471,15.380 6.579,15.393 7.542 L 15.405 8.400 10.002 8.400 L 4.600 8.400 4.600 7.606 C 4.600 6.575,4.650 6.385,5.017 6.017 C 5.317 5.718,5.611 5.606,6.108 5.602 L 6.400 5.600 6.400 5.860 M15.393 11.958 L 15.383 14.317 15.308 14.504 C 15.163 14.861,14.861 15.163,14.504 15.308 L 14.317 15.383 10.000 15.383 L 5.683 15.383 5.496 15.308 C 5.393 15.266,5.241 15.179,5.157 15.113 C 4.955 14.956,4.785 14.733,4.692 14.504 L 4.617 14.317 4.607 11.958 L 4.598 9.600 10.000 9.600 L 15.402 9.600 15.393 11.958 " stroke="none" fill-rule="evenodd" fill="black"></path></svg>
